dist/svgs/crypto-icons/icons/ifc.svg

<?xml version="1.0" encoding="UTF-8" standalone="yes"?>
<svg xmlns="http://www.w3.org/2000/svg" xmlns:xlink="http://www.w3.org/1999/xlink" width="512px" height="512px" viewBox="0 0 384 384" version="1.1">
  <g id="surface1">
    <path style=" stroke:none;fill-rule:nonzero;fill:rgb(0%,0%,0%);fill-opacity:1;" d="M 294.777344 282.171875 C 249.480469 282.171875 216.792969 255.210938 190.339844 227.425781 C 162.953125 255.96875 131.300781 282.171875 88.347656 282.171875 C 30.964844 282.171875 0 235.148438 0 190.90625 C 0 146.449219 30.347656 101.449219 88.347656 101.449219 C 132.261719 101.449219 163.6875 128.207031 190.644531 156.945312 C 218.355469 128.070312 250.574219 101.449219 294.78125 101.449219 C 353.117188 101.449219 384.59375 148.464844 384.59375 192.695312 C 384.589844 237.160156 353.738281 282.171875 294.777344 282.171875 Z M 222.785156 192.296875 C 247.246094 218.28125 267.777344 234.507812 294.777344 234.507812 C 325.890625 234.507812 336.929688 211.988281 336.929688 192.695312 C 336.929688 176.507812 328.050781 149.113281 294.777344 149.113281 C 267.738281 149.113281 245.277344 168.511719 222.785156 192.296875 Z M 88.34375 149.113281 C 49.625 149.113281 47.660156 183.925781 47.660156 190.90625 C 47.660156 207.101562 56.230469 234.507812 88.34375 234.507812 C 114.179688 234.507812 136.128906 215.4375 158.222656 192.050781 C 135.898438 167.828125 114.894531 149.113281 88.34375 149.113281 Z M 88.34375 149.113281 "/>
  </g>
</svg>

<svg xmlns="http://www.w3.org/2000/svg" viewBox="0 0 384 384"><path d="M294.777 282.172c-45.297 0-77.984-26.961-104.437-54.746-27.387 28.543-59.04 54.746-101.992 54.746C30.965 282.172 0 235.148 0 190.906c0-44.457 30.348-89.457 88.348-89.457 43.914 0 75.34 26.758 102.297 55.496 27.71-28.875 59.93-55.496 104.136-55.496 58.336 0 89.813 47.016 89.813 91.246-.004 44.465-30.856 89.477-89.817 89.477zm-71.992-89.875c24.461 25.984 44.992 42.21 71.992 42.21 31.114 0 42.153-22.519 42.153-41.812 0-16.187-8.88-43.582-42.153-43.582-27.039 0-49.5 19.399-71.992 43.184zM88.344 149.113c-38.719 0-40.684 34.813-40.684 41.793 0 16.196 8.57 43.602 40.684 43.602 25.836 0 47.785-19.07 69.879-42.457-22.325-24.223-43.328-42.938-69.88-42.938zm0 0"/></svg>
